!!!OTL: 366. Wie die Alten, so die Jungen.
!!!ODT: 1847
!!!ARE: Europa, Mitteleuropa, Deutschland, Westfalen
!!!SCT: B0366
!!!TXL: @@DE
!!!YEM: Copyright 1995, estate of Helmut Schaffrath.
**kern	**text
*ICvox	*
*Ivox	*
*clefG2	*
*M2/4	*
*k[]	*
*C:	*
!LO:TX:a:t=Heiter.	!
{8g	"Ma-
=1	=1
4cc	-ma,
4c	Pa-
=2	=2
4c	-pa!
8r}	.
{8cc	Ach
=3	=3
8cc	ſehn
8b	Sie
8a	doch
8g	den
=4	=4
4g	Kna-
8e}	-ben,
{8g	den
=5	=5
8g^	möcht'
8f	ich
8f	gern,
8f	den
=6	=6
8f^	möcht'
8e	ich
8e}	gern
{8g	ʒu
=7	=7
8a	ei-
8g	-nem
8f	Man-
8e	-ne
=8	=8
4g	ha-
8d}	-ben!
=||	=||
{8d	Er
=9	=9
[4g	hat
8g]	.
8a	ein
=10	=10
(8b\L	al-
8a	.
8bJ)}	.
{8cc	-ler-
=11	=11
4.dd	-liebſt
8ee	Ge-
=12	=12
4dd	-ſicht.
8r}	.
{8dd	Ach
=13	=13
8dd^	ſehn
8cc	Sie
8cc	doch,
8cc	ach
=14	=14
8cc^	ſehn
8b	Sie
8dd}	doch,
{8b	wie
=15	=15
8b	freundlich
8a	.
8cc	als
8a	er
=16	=16
4g	ſpricht!"
8r}	.
==	==
!!!AGN: Scherz - Lied, Liebe
!!!GTL: Liebeslieder - Liebeslust
!!!ONB: ESAC (Essen Associative Code) Database: BOEHME
!!!AMT: simple duple
!!!AIN: vox
!!!EED: Helmut Schaffrath
!!!EEV: 1.0
!!Mel. aus Weſtfalen. 1847.
!!@@COMMENT:"Das Lied wurde noch bis 1850 am Rhein, in Weſtfalen, Schleſien, Berlin rc. geſungen und
!!durch fl. Bll. verbreitet. Mündlich 1847 aus Weſtfalen. 1847. Ahnlich in einem geſchr. Liederheft
!!aus Werlau bei St. Goar a. Rh. 1840. Vergl. ähnliche Texte. "Erk" J. J. "Simrock" S. 351.
!!"Haſe's Liederb. 1883, Nr. 928."
!!@@END:
!!!URL-scan: https://archive.org/details/BoehmeVtLieder1895/page/n303/mode/2up
!!!ENC: Anna Maria Matuszewska
!!!EEV: 2024/05/07
*-	*-
